!!!!SEGMENT: pl-sa--19-a-i-19--003_stolle--sinfonia-di-camera-minuetto.krn
!!!cenid: 17xx:664
!!!COM: Stolle
!!!COM-rismID: pe41022824
!!!CDT:
!!!CNT:
!!!OPR: Sinfonia di Camera
!!!OTL: Minuetto
!!!OMV: 003
!!!PDT:
!!!AGN: Secular
!!!SMS-siglum: PL-SA
!!!SMS-shelfmark: 19/A I 19
!!!SMS-shelfwork: 001-003 M
!!!SMS-variant:
!!!SMS-altvar:
!!!NIFC-rismSourceID: 1001076835
!!!NIFC-islandoraID:
!!!URL-pdf-islandora:
!!!URL-scan: https://bc.bdsandomierz.pl/dlibra/publication/1299/edition/1267/content @EN{Scan in the Sandomierz Diocese Digital Library} @PL{Skany w portalu Cyfrowa Biblioteka Diecezjalna w Sandomierzu}
!!!ONB-nifc: UWAGA: części Sinfonii: Allegro assai, Allegretto, Minuetto (1mo + 2do), Polacchina
!!!AIN: 2 cor 1 empty 2 oboe 2 violn
!!!key:
**kern	**kern	**dynam	**kern	**dynam	**kern	**kern	**kern	**kern
*part7	*part6	*	*part5	*	*part4	*part3	*part2	*part1
*	*group3	*	*group3	*	*group2	*group2	*group1	*group1
*staff7	*staff6	*	*staff5	*	*staff4	*staff3	*staff2	*staff1
*Iempty	*Ivioln	*	*Ivioln	*	*Icor	*Icor	*Ioboe	*Ioboe
*I"Baſso	*I"Violino secondo.	*	*I"Violino Primo.	*	*I"Corno 2do	*I"Corno 1o del C.	*I"Oboe Seconda	*I"Oboe 1ma
*I'B.	*I'Vn II	*	*I'Vn I	*	*I'C. 2	*I'C. 1	*I'Ob. 2	*I'Ob. 1
*clefF4	*clefG2	*	*clefG2	*	*clefG2	*clefG2	*clefG2	*clefG2
*k[]	*k[]	*	*k[]	*	*k[]	*k[]	*k[]	*k[]
*C:	*C:	*	*C:	*	*C:	*C:	*C:	*C:
*M3/4	*M3/4	*	*M3/4	*	*M3/4	*M3/4	*M3/4	*M3/4
*>[A,A,B,B,C,C,D,D]	*>[A,A,B,B,C,C,D,D]	*	*>[A,A,B,B,C,C,D,D]	*	*>[A,A,B,B,C,C,D,D]	*>[A,A,B,B,C,C,D,D]	*>[A,A,B,B,C,C,D,D]	*>[A,A,B,B,C,C,D,D]
=1	=1	=1	=1	=1	=1	=1	=1	=1
*>A	*>A	*	*>A	*	*>A	*>A	*>A	*>A
!LO:TX:a:i:t=Minuetto 1mo	!LO:TX:a:Bi:t=Minuetto 1.mo	!	!LO:TX:a:Bi:t=Minuetto 1.mo	!	!LO:TX:a:Bi:t=Minuetto 1mo	!LO:TX:a:i:t=Minuetto 1o	!LO:TX:a:i:t=Minuetto 1mo	!LO:TX:a:t=Minuetto 1mo
4c\	4cc\	.	4cc\	.	4cc\	4ccc\	4cc\	4ccc\
4C/	4c/	.	4c/	.	4c/	4cc\	4cc\	4cc\
4C/	4c/	.	4c/	.	4c/	4cc\	4cc\	4cc\
=2	=2	=2	=2	=2	=2	=2	=2	=2
4C/	4c/	.	4c/	.	4c/	4cc\	4cc\	4cc\
8C/L	8c/L	.	8c/L	.	4c/	8cc\L	8cc\L	8cc\L
8D/	8d/	.	8d/	.	.	8dd\	8dd\	8dd\
8E/	8e/	.	8e/	.	4c/	8ee\	8ee\	8ee\
8F/J	8f/J	.	8f/J	.	.	8ff\J	8ff\J	8ff\J
=3	=3	=3	=3	=3	=3	=3	=3	=3
4G\	4g/	.	4g/	.	4g/	4gg\	4gg\	4gg\
4GG/	4G/	.	4G/	.	4G/	4g/	4g/	4g/
4GG/	4G/	.	4G/	.	4G/	4g/	4g/	4g/
!	!	!	!	!	!	!	!LO:LB:g=original	!
=4	=4	=4	=4	=4	=4	=4	=4	=4
4GG/	4G/	.	4G/	.	4G/	4g/	4g/	4g/
8r	8r	.	8r	.	4r	4r	8r	8r
8GG/L	8g/L	.	8g/L	.	.	.	8g/L	8b\L
8AA/	8a/	.	8a/	.	4r	4r	8a/	8cc\
8BB/J	8b/J	.	8b/J	.	.	.	8b/J	8dd\J
!	!	!	!	!	!	!	!	!LO:LB:g=original
=5	=5	=5	=5	=5	=5	=5	=5	=5
*	*	*	*	*	*2\right	*2\right	*2\right	*2\right
4C\	4cc\	.	4cc\	.	2.cc\	2.ee\	2.cc\	2.ee\
4C\	4c/	.	4c/	.	.	.	.	.
4C\	4g/	.	8.cc\L	.	.	.	.	.
.	.	.	16ee\Jk	.	.	.	.	.
=6	=6	=6	=6	=6	=6	=6	=6	=6
*2\right	*	*	*	*	*	*	*	*
2BB\	[2g/	.	4dd\	.	2.g/	2dd\	2dd\	2.dd\
.	.	.	4G/	.	.	.	.	.
4GG/	8.g/L]	.	8.b\L	.	.	4gg\	4b/	.
.	16b/Jk	.	16dd\Jk	.	.	.	.	.
*	*	*	*custos:cc	*	*	*	*	*
!	!	!	!LO:LB:g=original	!	!	!LO:LB:g=original	!	!
=7	=7	=7	=7	=7	=7	=7	=7	=7
4C/	4a/	.	4cc\	.	4cc\	4aa\	4a/	4cc\
4D\	4g/	.	4b/	.	4dd\	4gg\	4g/	4b/
4DD/	4f#X/	.	4a/	.	4dd\	4ff#X\	4f#X/	4a/
!	!	!	!	!	!LO:LB:g=original	!	!	!
=8	=8	=8	=8	=8	=8	=8	=8	=8
4.GG/	2.g/	.	2.g/	.	2.g/	2.gg\	2.g/	2.g/
!LO:LB:g=original	!	!	!	!	!	!	!	!
8G\L	.	.	.	.	.	.	.	.
8A\	.	.	.	.	.	.	.	.
8B\J	.	.	.	.	.	.	.	.
!	!LO:LB:g=original	!	!	!	!	!	!LO:LB:g=original	!
=9:|!|:	=9:|!|:	=9:|!|:	=9:|!|:	=9:|!|:	=9:|!|:	=9:|!|:	=9:|!|:	=9:|!|:
*>B	*>B	*	*>B	*	*>B	*>B	*>B	*>B
8c\L	8.G/L	.	8.G/L	.	8r	8r	2.r	2.r
8G\	.	.	.	.	8ee\	8gg\	.	.
!	!LO:TX:t=P:problem=mixed beam	!	!LO:TX:t=P:problem=mixed beam	!	!	!	!	!
.	16ee\Jk	.	16gg\Jk	.	.	.	.	.
*	*2\right	*	*2\right	*	*	*	*	*
8E\	2eet\	.	2ggT\	.	2ee\	2gg\	.	.
8G\	.	.	.	.	.	.	.	.
8E\	.	.	.	.	.	.	.	.
8C\J	.	.	.	.	.	.	.	.
=10	=10	=10	=10	=10	=10	=10	=10	=10
2.r	2.r	.	2.r	.	2.r	2.r	(8ee\L	(8gg\L
.	.	.	.	.	.	.	8dd\)	8ff\)
.	.	.	.	.	.	.	(8cc\	(8ee\
.	.	.	.	.	.	.	8ee\J)	8gg\J)
.	.	.	.	.	.	.	4dd\	4ff\
=11	=11	=11	=11	=11	=11	=11	=11	=11
8G\L	8.G/L	.	8.G/L	.	8r	8r	2.r	2.r
8D\	.	.	.	.	8dd\	8ff\	.	.
!	!LO:TX:t=P:problem=mixed beam	!	!LO:TX:t=P:problem=mixed beam	!	!	!	!	!
.	16dd\Jk	.	16ff\Jk	.	.	.	.	.
8BB\	2ddT\	.	2ff\	.	2dd\	2ff\	.	.
8D\	.	.	.	.	.	.	.	.
8BB\	.	.	.	.	.	.	.	.
8GG\J	.	.	.	.	.	.	.	.
*	*	*	*	*	*	*	*	*custos:ff
!	!	!	!	!	!	!	!	!LO:LB:g=original
=12	=12	=12	=12	=12	=12	=12	=12	=12
2.r	2.r	.	2.r	.	2.r	2.r	(8dd\L	(8ff\L
.	.	.	.	.	.	.	8cc\)	8ee\)
.	.	.	.	.	.	.	(8b\	(8dd\
.	.	.	.	.	.	.	8dd\J)	8ff\J)
.	.	.	.	.	.	.	4cc\	4ee\
=13	=13	=13	=13	=13	=13	=13	=13	=13
4GG/	(8ff\L	.	(8ff\L	.	2g/	2dd\	2dd\	2ff\
.	8aa\)	.	8aa\)	.	.	.	.	.
4GG/	(8dd\	.	(8dd\	.	.	.	.	.
.	8ff\)	.	8ff\)	.	.	.	.	.
!	!LO:TX:t=P:problem=mixed beam	!	!LO:TX:t=P:problem=mixed beam	!	!	!	!	!
4GG/	8.G/	.	8.G/	.	4g/	4dd\	4dd\	4ff\
.	16ff\Jk	.	16ff\Jk	.	.	.	.	.
=14	=14	=14	=14	=14	=14	=14	=14	=14
4C\	8ee\L	.	8ee\L	.	4cc\	4.ee\	(8ee\L	8ee\L
.	(8dd\	.	(8dd\	.	.	.	8dd\	(8dd\
4D\	8cc\	.	8cc\	.	4g/	.	8cc\	8cc\
.	8b\)	.	8b\)	.	.	8dd\	8b\	8b\)
4E\	8cc\	.	8cc\	.	4e/	4cc\	8cc\)	8cc\
!	!LO:TX:t=P:problem=mixed beam	!	!	!	!	!	!	!
.	8e/J	.	8g\J	.	.	.	8g\J	8g\J
=15	=15	=15	=15	=15	=15	=15	=15	=15
4F\	4d/	.	4f/	.	4dd\	4ff\	4f/	4f/
4G\	4c/	.	4e/	.	4cc\	4ee\	4e/	4e/
4GG/	4B/	.	4d/	.	4g/	4dd\	4d/	4d/
=16	=16	=16	=16	=16	=16	=16	=16	=16
.	.	.	8qqd\	.	.	8qqdd/	8qqd\	8qqd\
*^	*	*	*	*	*	*	*	*
4.C/	2.C\	2.c/	.	2.c/	.	2.e/	2.cc\	2.c/	2.c/
8G/L	.	.	.	.	.	.	.	.	.
8A/	.	.	.	.	.	.	.	.	.
8B/J	.	.	.	.	.	.	.	.	.
*v	*v	*	*	*	*	*	*	*	*
!	!LO:LB:g=original	!	!LO:LB:g=original	!	!LO:LB:g=original	!LO:LB:g=original	!LO:LB:g=original	!LO:LB:g=original
=17:|!	=17:|!	=17:|!	=17:|!	=17:|!	=17:|!	=17:|!	=17:|!	=17:|!
*>C	*>C	*	*>C	*	*>C	*>C	*>C	*>C
!	!	!	!	!	!	!	!LO:TX:b:i:t=Soli	!LO:TX:b:i:t=Soli
!LO:TX:a:i:t=Minuetto 2do Si Tace\nil 1mo do Capo	!LO:TX:a:Bi:t=Minuetto 2do	!LO:DY:a:t=Piano Sempre	!	!LO:DY:a:t=P&colon;o. per tutto	!LO:TX:a:Bi:t=Minuetto 2do si Tace\nil 1mo da Capo	!LO:TX:a:Bi:t=Minuetto 2do si Tace\nil 1mo da Capo.	!LO:TX:a:Bi:t=Minuetto 2do	!LO:TX:a:i:t=Minuetto 2do
2.ryy	2c/	p	2c/	p	2.ryy	2.ryy	(4cc\	(4ee\
.	.	.	.	.	.	.	4e/)	4gg\)
.	4d/	.	4d/	.	.	.	4f/	4b/
=18	=18	=18	=18	=18	=18	=18	=18	=18
2.ryy	2e/	.	2e/	.	2.ryy	2.ryy	2e/	(4cc\
.	.	.	.	.	.	.	.	4ee\)
.	4e/	.	4e/	.	.	.	[<4cc\	4g/
=19	=19	=19	=19	=19	=19	=19	=19	=19
2.ryy	2f/	.	2f/	.	2.ryy	2.ryy	4cc\]	(4a/
.	.	.	.	.	.	.	[<2cc\	4cc/)
.	4e/	.	4e/	.	.	.	.	4g/
=20	=20	=20	=20	=20	=20	=20	=20	=20
.	.	.	.	.	.	.	.	8qqg\
2.ryy	4d/	.	4d/	.	2.ryy	2.ryy	(4cc\]	2f/
.	4G/	.	4G/	.	.	.	4bt\)	.
.	4c/	.	4c/	.	.	.	4cc\	4e/
!	!	!	!	!	!	!	!	!LO:LB:g=original
=21	=21	=21	=21	=21	=21	=21	=21	=21
2.ryy	4G/	.	4G/	.	2.ryy	2.ryy	4b\|	4d/|
.	4G/	.	4G/	.	.	.	(4b\	(4d/
.	4G/	.	4G/	.	.	.	4cc\)	4e/)
!	!	!	!	!	!	!	!LO:LB:g=original	!
=22	=22	=22	=22	=22	=22	=22	=22	=22
2.ryy	4G/	.	4G/	.	2.ryy	2.ryy	4dd\|	4f/|
.	4G/	.	4G/	.	.	.	(4dd\	(4f/
.	4c/	.	4c/	.	.	.	4cc\)	4e/)
!	!	!	!LO:LB:g=original	!	!	!	!	!
=23	=23	=23	=23	=23	=23	=23	=23	=23
2.ryy	4r	.	4r	.	2.ryy	2.ryy	8ff\L	8a/L
.	.	.	.	.	.	.	8ee\J	8g/J
.	4f/	.	4f/	.	.	.	4dd\	4f/
.	4f#X/	.	4f#X/	.	.	.	4cc\	4e/
!	!LO:LB:g=original	!	!	!	!	!	!	!
=24	=24	=24	=24	=24	=24	=24	=24	=24
.	.	.	.	.	.	.	8qqcc/	8qqe\
2.ryy	8g/L	.	8g/L	.	2.ryy	2.ryy	2.b\	2.d/
.	8G/J	.	8G/J	.	.	.	.	.
*	*^	*	*^	*	*	*	*	*
!	!LO:TX:a:t=P:problem= przed ósemkami divisi cyfry 1 i 2	!	!	!LO:TX:a:t=P:problem= przed ósemkami divisi cyfry 1 i 2	!	!	!	!	!	!
.	8g/L	8d\L	.	8g/L	8d\L	.	.	.	.	.
.	8fn/	8c\	.	8fn/	8c\	.	.	.	.	.
.	8e/	8B\	.	8e/	8B\	.	.	.	.	.
.	8d/J	8A\J	.	8d/J	8A\J	.	.	.	.	.
*	*v	*v	*	*	*	*	*	*	*	*
*	*	*	*v	*v	*	*	*	*	*
=25:|!|:	=25:|!|:	=25:|!|:	=25:|!|:	=25:|!|:	=25:|!|:	=25:|!|:	=25:|!|:	=25:|!|:
*>D	*>D	*	*>D	*	*>D	*>D	*>D	*>D
2.ryy	4G/	.	4G/	.	2.ryy	2.ryy	4b\|	4d/|
.	4G/	.	4G/	.	.	.	(4b\	(4d/
.	4G/	.	4G/	.	.	.	4cc\)	4e/)
=26	=26	=26	=26	=26	=26	=26	=26	=26
.	.	.	.	.	.	.	8qqee/	8qqg\
2.ryy	4G/	.	4G/	.	2.ryy	2.ryy	4.dd\	4.f/
.	4G/	.	4G/	.	.	.	.	.
.	.	.	.	.	.	.	16cc\LL	(16e/LL
.	.	.	.	.	.	.	16b\JJ	16d/JJ)
.	4c/	.	4c/	.	.	.	4cc\	4e/
!	!	!	!	!	!	!	!	!LO:LB:g=original
=27	=27	=27	=27	=27	=27	=27	=27	=27
2.ryy	4c/	.	4c/	.	2.ryy	2.ryy	4e/|	4g/|
.	4c/	.	4c/	.	.	.	(4e/	(4g/
.	4c/	.	4c/	.	.	.	4f/)	4a/)
=28	=28	=28	=28	=28	=28	=28	=28	=28
.	.	.	.	.	.	.	8qqa\	8qqcc\
2.ryy	4c/	.	4c/	.	2.ryy	2.ryy	4.g/	4.b-X/
.	4c/	.	4c/	.	.	.	.	.
.	.	.	.	.	.	.	16f/LL	(16a/LL
.	.	.	.	.	.	.	16e/JJ	16g/JJ)
.	4f/	.	4f/	.	.	.	4f/	4a/
!	!	!	!	!	!	!	!LO:LB:g=original	!
=29	=29	=29	=29	=29	=29	=29	=29	=29
2.ryy	2f/	.	2f/	.	2.ryy	2.ryy	4f/|	4a/|
.	.	.	.	.	.	.	2f/	(4a/
.	4g/	.	4g/	.	.	.	.	4b/)
=30	=30	=30	=30	=30	=30	=30	=30	=30
.	.	.	.	.	.	.	.	8qqdd/
2.ryy	2c/	.	2c/	.	2.ryy	2.ryy	2e/	4.cc\
.	.	.	.	.	.	.	.	16b/LL
.	.	.	.	.	.	.	.	16a/JJ
.	4r	.	4r	.	.	.	4r	4g/
!	!LO:LB:g=original	!	!LO:LB:g=original	!	!	!	!	!
=31	=31	=31	=31	=31	=31	=31	=31	=31
2.ryy	4f/	.	4f/	.	2.ryy	2.ryy	4cc\	8a/L
.	.	.	.	.	.	.	.	8f/J
.	4g/	.	4g/	.	.	.	(4cc\	4e/
.	4G/	.	4G/	.	.	.	4bt\)	4d/
=32	=32	=32	=32	=32	=32	=32	=32	=32
.	.	.	.	.	.	.	8qqb/	8qqd\
*	*^	*	*^	*	*	*	*	*
2.ryy	8c/L	2.c\	.	8c/L	2.c\	.	2.ryy	2.ryy	2.cc\	2.c/
.	8e/	.	.	8e/	.	.	.	.	.	.
.	8d/	.	.	8d/	.	.	.	.	.	.
.	8c/	.	.	8c/	.	.	.	.	.	.
.	8B/	.	.	8B/	.	.	.	.	.	.
!	!	!LO:TX:b:Bi:t=Minuetto 1mo da Capo	!	!LO:TX:b:Bi:t=Minuetto 1mo Da capo	!	!	!	!	!LO:TX:b:Bi:t=Minuetto 1mo \nDa Capo.	!LO:TX:b:i:t=Minuetto 1o&colon; da capo
.	8A/J	.	.	8A/J	.	.	.	.	.	.
*	*v	*v	*	*	*	*	*	*	*	*
*	*	*	*v	*v	*	*	*	*	*
=:|!	=:|!	=:|!	=:|!	=:|!	=:|!	=:|!	=:|!	=:|!
*-	*-	*-	*-	*-	*-	*-	*-	*-
!!!system-decoration: [g1][g2][g3]s7
!!!RDF**kern: > = above
!!!RDF**kern: < = below
!!!RDF**kern: | = vertical stroke
!!!ENC: Marta Lawrence
!!!END: 2020-10-07
!!!ENC: Mateusz Solarz
!!!END: 2020-06-02
